X:1
T:Title
%%score 1 { 2 | 3 }
L:1/8
Q:1/4=90
M:6/8
K:G
V:1 treble nm="Grand Piano, Soprano"
V:2 bass nm="Choir Pad, Welcome the Spirit In"
V:3 bass 
V:1
 [DB][DB][DB] [DB][DB][DB] | [CA][CG][CE] [B,D]2 [DG] | [FA][GB][Ac] .[FA]3 | [GB][Ac][Bd] .[GB]3 | %4
w: By~Edmund~Simon~Lorenz * * * * *||||
 [DB][DB][DB] [DB][DB][DB] | [CA][CG][CE] [B,D]2 D | [EA][EA][EA] [DG]2 [CF] | [B,G]6 | %8
w: ||||
 [Bd][Bd][Bd] [Bd][Ac][GB] | [Ac][Ac][Ac] .[FA]3 | [GB][GB][GB] [GB][DA][DG] | [^CA][CA][CA] .D3 | %12
w: ||||
 [DG][DG][DG] [DA][DA][DA] | [DB][Ec][=Fd] .[Ec]3 | [DB][CA][B,G] [DB]2 [CA] | [B,G]6- | %16
w: ||||
 [B,G]3 z3 |] %17
w: |
V:2
 G,G,G, G,G,G, | E,E,G, G,2 B, | DDD .D3 | DDD .D3 | G,G,G, G,G,G, | E,E,G, G,2 B, | CCC B,2 A, | %7
 G,6 | DDD DDD | DDD .D3 | DDD D[K:bass]F,G, | E,F,G, F,2 C, | G,G,G, F,F,F, | G,G,G, .G,3 | %14
 G,G,G, F,2 F, | G,6- | G,3 z3 |] %17
V:3
 z6 | C,C,C, G,,2 G,, | D,D,D, .D,3 | G,G,G, .G,3 | z6 | C,C,C, G,,2 G,, | C,C,C, D,2 D, | G,,6 | %8
 G,G,G, G,G,G, | D,D,D, .D,3 | G,G,G, G,,A,,B,, | A,,A,,A,, .D,3 | B,,B,,B,, D,D,D, | z3 .C,3 | %14
 D,D,D, D,2 D, | G,,6- | G,,3 z3 |] %17

